source/img/icon_marker.svg

<svg id="Layer_1" xmlns="http://www.w3.org/2000/svg" width="100" height="100" viewBox="0 0 100 100"><style>path{fill:#C60}</style><path d="M80.662 33.798c-.6-16.37-14.096-29.507-30.61-29.507-16.517 0-30.015 13.138-30.613 29.51-9.706.95-17.318 9.155-17.318 19.107 0 17.8 17.032 35.036 17.757 35.76l1.443 1.445 1.444-1.444c.264-.264 5.893-5.945 10.76-14.09.177.27.344.537.525.808 7.18 10.77 14.256 17.887 14.554 18.185l1.444 1.445 1.444-1.444c.298-.297 7.375-7.415 14.554-18.184.188-.282.362-.56.546-.842 4.872 8.164 10.516 13.86 10.78 14.125l1.444 1.443 1.444-1.444c.725-.726 17.757-17.962 17.757-35.762 0-9.968-7.633-18.18-17.358-19.11zm-1.32 12.593c3.124.47 5.53 3.164 5.53 6.418a6.503 6.503 0 0 1-6.495 6.496 6.463 6.463 0 0 1-3.055-.766c1.78-4.154 3.125-8.207 4.02-12.147zm-54.583 12.1a6.456 6.456 0 0 1-3.143.814 6.503 6.503 0 0 1-6.496-6.496c0-3.29 2.46-6.01 5.636-6.432.89 3.93 2.23 7.972 4.003 12.114zm-3.436 25.738C17.29 79.73 6.208 66.165 6.208 52.906c0-7.722 5.824-14.1 13.308-14.998a52.11 52.11 0 0 0 .75 6.08c-4.286.653-7.583 4.354-7.583 8.82 0 4.925 4.008 8.932 8.933 8.932a8.883 8.883 0 0 0 4.136-1.02 101.997 101.997 0 0 0 5.314 9.95c-3.406 6.147-7.582 11.152-9.742 13.558zm28.727 4.926C44.317 82.926 23.497 58.68 23.497 34.93c0-14.642 11.912-26.555 26.555-26.555 14.643 0 26.555 11.913 26.555 26.555 0 23.75-20.82 47.997-26.554 54.224zm28.768-4.927c-2.165-2.412-6.352-7.43-9.762-13.59 2.02-3.35 3.776-6.64 5.272-9.875 1.217.622 2.59.98 4.048.98 4.926 0 8.933-4.01 8.933-8.934 0-4.43-3.245-8.106-7.48-8.804.378-2.067.627-4.1.753-6.102 7.505.878 13.35 7.267 13.35 15.004.002 13.235-11.08 26.818-15.115 31.32z"/><path d="M49.88 17.572c-8.085 0-14.662 6.577-14.662 14.66s6.577 14.662 14.66 14.662 14.662-6.577 14.662-14.66S57.963 17.57 49.88 17.57zm0 25.323c-5.88 0-10.662-4.783-10.662-10.66S44 21.57 49.878 21.57s10.662 4.783 10.662 10.66-4.782 10.663-10.66 10.663z"/></svg>

<?xml version="1.0" encoding="iso-8859-1"?>
<!DOCTYPE svg PUBLIC "-//W3C//DTD SVG 1.1//EN" "http://www.w3.org/Graphics/SVG/1.1/DTD/svg11.dtd">
<svg version="1.1" id="Layer_1" xmlns="http://www.w3.org/2000/svg" xmlns:xlink="http://www.w3.org/1999/xlink" x="0px" y="0px" width="100px" height="100px" viewBox="0 0 100 100" style="enable-background:new 0 0 100 100;" xml:space="preserve">
	 <style>
		path { fill: #CC6600; }
	</style>
	<path d="M80.662, 33.798C80.063, 17.427, 66.566, 4.291, 50.051, 4.291c-16.516, 0-30.014, 13.137-30.612, 29.51 c-9.705, 0.95-17.317, 9.154-17.317, 19.106c0, 17.8, 17.032, 35.036, 17.757, 35.761l1.444, 1.444l1.444-1.444 c0.264-0.264, 5.893-5.945, 10.76-14.091c0.177, 0.27, 0.344, 0.538, 0.525, 0.809c7.179, 10.769, 14.256, 17.887, 14.554, 18.185l1.444, 1.444 l1.444-1.444c0.298-0.298, 7.375-7.416, 14.554-18.185c0.188-0.282, 0.362-0.561, 0.546-0.842c4.872, 8.164, 10.516, 13.861, 10.78, 14.125 l1.444, 1.444l1.444-1.444c0.725-0.725, 17.757-17.961, 17.757-35.761C98.021, 42.94, 90.387, 34.729, 80.662, 33.798z M79.341, 46.391 c3.125, 0.468, 5.532, 3.163, 5.532, 6.417c0, 3.582-2.914, 6.496-6.496, 6.496c-1.104, 0-2.144-0.279-3.055-0.766 C77.103, 54.384, 78.447, 50.331, 79.341, 46.391z M24.759, 58.49c-0.932, 0.517-2.002, 0.814-3.142, 0.814 c-3.582, 0-6.496-2.914-6.496-6.496c0-3.289, 2.46-6.009, 5.635-6.432C21.647, 50.306, 22.985, 54.348, 24.759, 58.49z M21.324, 84.228 C17.29, 79.731, 6.208, 66.165, 6.208, 52.906c0-7.722, 5.824-14.1, 13.308-14.998c0.126, 1.994, 0.374, 4.02, 0.75, 6.079 c-4.286, 0.654-7.583, 4.355-7.583, 8.82c0, 4.926, 4.008, 8.933, 8.933, 8.933c1.492, 0, 2.898-0.372, 4.136-1.021 c1.506, 3.259, 3.275, 6.577, 5.314, 9.951C27.66, 76.817, 23.484, 81.822, 21.324, 84.228z M50.051, 89.154 c-5.735-6.228-26.555-30.475-26.555-54.224c0-14.642, 11.912-26.555, 26.555-26.555c14.642, 0, 26.554, 11.913, 26.554, 26.555 C76.605, 58.68, 55.786, 82.927, 50.051, 89.154z M78.818, 84.227c-2.165-2.412-6.352-7.43-9.762-13.591 c2.02-3.348, 3.776-6.64, 5.272-9.874c1.217, 0.622, 2.59, 0.979, 4.048, 0.979c4.926, 0, 8.933-4.008, 8.933-8.933 c0-4.429-3.244-8.106-7.479-8.804c0.378-2.067, 0.627-4.101, 0.753-6.102c7.505, 0.878, 13.35, 7.267, 13.35, 15.004 C93.935, 66.141, 82.852, 79.724, 78.818, 84.227z"/>
	<path d="M49.879, 17.572c-8.084, 0-14.661, 6.577-14.661, 14.661s6.577, 14.661, 14.661, 14.661 S64.54, 40.317, 64.54, 32.233S57.963, 17.572, 49.879, 17.572z M49.879, 42.895c-5.879, 0-10.661-4.783-10.661-10.661 S44, 21.572, 49.879, 21.572S60.54, 26.355, 60.54, 32.233S55.758, 42.895, 49.879, 42.895z"/>
</svg>
